Numix-Circle/48x48/apps/android-arc.svg

<?xml version="1.0" encoding="UTF-8" standalone="no"?>
<svg
   xmlns:dc="http://purl.org/dc/elements/1.1/"
   xmlns:cc="http://creativecommons.org/ns#"
   xmlns:rdf="http://www.w3.org/1999/02/22-rdf-syntax-ns#"
   xmlns:svg="http://www.w3.org/2000/svg"
   xmlns="http://www.w3.org/2000/svg"
   xmlns:xlink="http://www.w3.org/1999/xlink"
   xmlns:sodipodi="http://sodipodi.sourceforge.net/DTD/sodipodi-0.dtd"
   xmlns:inkscape="http://www.inkscape.org/namespaces/inkscape"
   viewBox="0 0 48 48"
   id="svg2"
   version="1.1"
   inkscape:version="0.91 r13725"
   sodipodi:docname="android-arc.svg">
  <metadata
     id="metadata33">
    <rdf:RDF>
      <cc:Work
         rdf:about="">
        <dc:format>image/svg+xml</dc:format>
        <dc:type
           rdf:resource="http://purl.org/dc/dcmitype/StillImage" />
      </cc:Work>
    </rdf:RDF>
  </metadata>
  <sodipodi:namedview
     pagecolor="#ffffff"
     bordercolor="#666666"
     borderopacity="1"
     objecttolerance="10"
     gridtolerance="10"
     guidetolerance="10"
     inkscape:pageopacity="0"
     inkscape:pageshadow="2"
     inkscape:window-width="1260"
     inkscape:window-height="962"
     id="namedview31"
     showgrid="false"
     inkscape:zoom="8.3404256"
     inkscape:cx="32.892173"
     inkscape:cy="7.0007498"
     inkscape:window-x="10"
     inkscape:window-y="52"
     inkscape:window-maximized="0"
     inkscape:current-layer="svg2"
     showguides="false">
    <inkscape:grid
       type="xygrid"
       id="grid4161" />
  </sodipodi:namedview>
  <defs
     id="defs4">
    <linearGradient
       inkscape:collect="always"
       id="linearGradient4273">
      <stop
         style="stop-color:#e8a803;stop-opacity:1;"
         offset="0"
         id="stop4275" />
      <stop
         style="stop-color:#fcb704;stop-opacity:1"
         offset="1"
         id="stop4277" />
    </linearGradient>
    <linearGradient
       id="linearGradient4212"
       x1="1"
       x2="47"
       gradientUnits="userSpaceOnUse">
      <stop
         style="stop-color:#6f8291;stop-opacity:1"
         id="stop7" />
      <stop
         offset="1"
         style="stop-color:#7a8c9a;stop-opacity:1"
         id="stop9" />
    </linearGradient>
    <linearGradient
       inkscape:collect="always"
       xlink:href="#linearGradient4273"
       id="linearGradient4279"
       x1="1"
       y1="24"
       x2="47"
       y2="24"
       gradientUnits="userSpaceOnUse" />
  </defs>
  <g
     id="g11">
    <path
       d="m 36.31 5 c 5.859 4.062 9.688 10.831 9.688 18.5 c 0 12.426 -10.07 22.5 -22.5 22.5 c -7.669 0 -14.438 -3.828 -18.5 -9.688 c 1.037 1.822 2.306 3.499 3.781 4.969 c 4.085 3.712 9.514 5.969 15.469 5.969 c 12.703 0 23 -10.298 23 -23 c 0 -5.954 -2.256 -11.384 -5.969 -15.469 c -1.469 -1.475 -3.147 -2.744 -4.969 -3.781 z m 4.969 3.781 c 3.854 4.113 6.219 9.637 6.219 15.719 c 0 12.703 -10.297 23 -23 23 c -6.081 0 -11.606 -2.364 -15.719 -6.219 c 4.16 4.144 9.883 6.719 16.219 6.719 c 12.703 0 23 -10.298 23 -23 c 0 -6.335 -2.575 -12.06 -6.719 -16.219 z"
       style="opacity:0.05"
       id="path13" />
    <path
       d="m 41.28 8.781 c 3.712 4.085 5.969 9.514 5.969 15.469 c 0 12.703 -10.297 23 -23 23 c -5.954 0 -11.384 -2.256 -15.469 -5.969 c 4.113 3.854 9.637 6.219 15.719 6.219 c 12.703 0 23 -10.298 23 -23 c 0 -6.081 -2.364 -11.606 -6.219 -15.719 z"
       style="opacity:0.1"
       id="path15" />
    <path
       d="m 31.25 2.375 c 8.615 3.154 14.75 11.417 14.75 21.13 c 0 12.426 -10.07 22.5 -22.5 22.5 c -9.708 0 -17.971 -6.135 -21.12 -14.75 a 23 23 0 0 0 44.875 -7 a 23 23 0 0 0 -16 -21.875 z"
       style="opacity:0.2"
       id="path17" />
  </g>
  <g
     transform="matrix(0,-1,1,0,0,48)"
     style="fill:url(#linearGradient4279);fill-opacity:1"
     id="g19">
    <path
       d="M 24,1 C 36.703,1 47,11.297 47,24 47,36.703 36.703,47 24,47 11.297,47 1,36.703 1,24 1,11.297 11.297,1 24,1 Z"
       id="path21"
       style="fill:url(#linearGradient4279);fill-opacity:1" />
  </g>
  <path
     id="path4149"
     d="m 20.601562,12.003906 c -0.058,-0.014 -0.116969,-0.0038 -0.167968,0.03125 -0.102001,0.066 -0.120969,0.211313 -0.04297,0.320312 l 1.292969,1.84375 C 19.628594,15.137219 18.184,16.922 18,19 l 14,0 c -0.184,-2.078 -1.624688,-3.866782 -3.679688,-4.800782 l 0.0039,0 1.292969,-1.84375 c 0.078,-0.108999 0.05503,-0.250312 -0.04297,-0.320312 -0.102,-0.07 -0.246218,-0.03478 -0.324218,0.07422 l -1.339844,1.914062 c -0.887,-0.344 -1.87125,-0.535156 -2.90625,-0.535156 -1.035,0 -2.02025,0.191156 -2.90625,0.535156 l -1.34375,-1.914062 c -0.03899,-0.055 -0.09534,-0.09247 -0.152337,-0.10547 z m 1.449219,3.576172 c 0.43,0 0.771484,0.341765 0.771484,0.759766 0,0.417999 -0.346484,0.761718 -0.771484,0.761718 -0.43,0 -0.777344,-0.339719 -0.777344,-0.761718 0,-0.418 0.348344,-0.759766 0.777344,-0.759766 z m 6,0 c 0.426,0 0.771484,0.341765 0.771484,0.759766 0,0.417999 -0.346484,0.761718 -0.771484,0.761718 -0.43,0 -0.777344,-0.339719 -0.777344,-0.761718 0,-0.418 0.348344,-0.759766 0.777344,-0.759766 z M 15.566406,20 C 14.703406,20 14,20.758406 14,21.691406 l 0,6.617188 c 0,0.934 0.703406,1.693359 1.566406,1.693359 0.863,0 1.433594,-0.76036 1.433594,-1.693359 l 0,-6.617188 C 17,20.757406 16.430406,20 15.566406,20 Z m 2.439453,0 0,11.59375 c 0,0.688 0.32,1.40625 1,1.40625 l 2,0 0,3.375 c 0,0.898 0.3155,1.625 1.1875,1.625 0.867,0 1.814453,-0.727 1.814453,-1.625 l 0,-3.375 2,0 0,3.375 c 0,0.898 0.9405,1.625 1.8125,1.625 0.867,0 1.191406,-0.727 1.191406,-1.625 l 0,-3.375 2,0 c 0.676,0 1,-0.71925 1,-1.40625 l 0,-11.59375 -14.005859,0 z m 16.433594,0 c -0.863,0 -1.433594,0.758406 -1.433594,1.691406 l 0,6.617188 c 0,0.934 0.569594,1.693359 1.433594,1.693359 0.867,0 1.5625,-0.76036 1.5625,-1.693359 l 0,-6.617188 c 0,-0.934 -0.6985,-1.691406 -1.5625,-1.691406 z m -9.435547,1.003906 c 2.227608,0 4.094228,1.465624 4.740234,3.478516 l 0.02148,0 c 0.02784,0.08715 0.04122,0.180374 0.06445,0.269531 0.01446,0.05581 0.03822,0.10751 0.05078,0.164062 l -0.01172,0 c 0.0065,0.02887 0.0095,0.0589 0.01563,0.08789 l -3.18164,0 c -0.02854,-0.0471 -0.04413,-0.101856 -0.07617,-0.146484 -0.04369,-0.06176 -0.09437,-0.117451 -0.144531,-0.173828 -0.05619,-0.06227 -0.110457,-0.126607 -0.173828,-0.181641 -0.34996,-0.306227 -0.802637,-0.498046 -1.304685,-0.498046 -0.553501,0 -1.046046,0.230735 -1.404297,0.595703 l -2.126953,-2.126953 c 0.03858,-0.03762 0.07398,-0.0784 0.113281,-0.115234 0.894,-0.837604 2.096097,-1.353516 3.417969,-1.353516 z m -3.96875,2.03125 2.15625,2.15625 c -0.04561,0.102733 -0.08302,0.209438 -0.111328,0.320312 -0.04201,0.158666 -0.07617,0.320227 -0.07617,0.492188 0,0.942088 0.654214,1.727563 1.53125,1.939453 l -1.343752,2.685547 c -1.858353,-0.727988 -3.1875,-2.508914 -3.1875,-4.625 0,-1.124733 0.400815,-2.137071 1.03125,-2.96875 z m 3.96875,1.96875 c 0.55243,0 1,0.447606 1,1 0,0.552392 -0.44757,1 -1,1 -0.552428,0 -1,-0.447608 -1,-1 0,-0.552394 0.447572,-1 1,-1 z m 2,1 3,0 c 0,2.761287 -2.238539,5 -5,5 -0.325789,0 -0.639526,-0.04554 -0.947266,-0.107422 l 1.490235,-2.978516 c 0.0059,-0.0017 0.01169,-0.0041 0.01758,-0.0059 0.830119,-0.241653 1.439451,-0.999353 1.439451,-1.908162 z"
     style="fill:#000000;fill-opacity:1;fill-rule:nonzero;stroke:none;opacity:0.1"
     inkscape:connector-curvature="0" />
  <path
     style="fill:#f9f9f9;fill-opacity:1;fill-rule:nonzero;stroke:none"
     d="M 19.597656 11 C 19.539656 10.986 19.480687 10.99625 19.429688 11.03125 C 19.327687 11.09725 19.308719 11.242563 19.386719 11.351562 L 20.679688 13.195312 C 18.624688 14.133313 17.180094 15.918094 16.996094 17.996094 L 30.996094 17.996094 C 30.812094 15.918094 29.371406 14.129312 27.316406 13.195312 L 27.320312 13.195312 L 28.613281 11.351562 C 28.691281 11.242563 28.668312 11.10125 28.570312 11.03125 C 28.468312 10.96125 28.324094 10.996469 28.246094 11.105469 L 26.90625 13.019531 C 26.01925 12.675531 25.035 12.484375 24 12.484375 C 22.965 12.484375 21.97975 12.675531 21.09375 13.019531 L 19.75 11.105469 C 19.711 11.050469 19.654656 11.013 19.597656 11 z M 21.046875 14.576172 C 21.476875 14.576172 21.818359 14.917937 21.818359 15.335938 C 21.818359 15.753937 21.471875 16.097656 21.046875 16.097656 C 20.616875 16.097656 20.269531 15.757937 20.269531 15.335938 C 20.269531 14.917938 20.617875 14.576172 21.046875 14.576172 z M 27.046875 14.576172 C 27.472875 14.576172 27.818359 14.917937 27.818359 15.335938 C 27.818359 15.753937 27.471875 16.097656 27.046875 16.097656 C 26.616875 16.097656 26.269531 15.757937 26.269531 15.335938 C 26.269531 14.917938 26.617875 14.576172 27.046875 14.576172 z M 14.5625 18.996094 C 13.6995 18.996094 12.996094 19.7545 12.996094 20.6875 L 12.996094 27.304688 C 12.996094 28.238688 13.6995 28.998047 14.5625 28.998047 C 15.4255 28.998047 15.996094 28.237687 15.996094 27.304688 L 15.996094 20.6875 C 15.996094 19.7535 15.4265 18.996094 14.5625 18.996094 z M 17.001953 18.996094 L 17.001953 30.589844 C 17.001953 31.277844 17.321953 31.996094 18.001953 31.996094 L 20.001953 31.996094 L 20.001953 35.371094 C 20.001953 36.269094 20.317453 36.996094 21.189453 36.996094 C 22.056453 36.996094 23.003906 36.269094 23.003906 35.371094 L 23.003906 31.996094 L 25.003906 31.996094 L 25.003906 35.371094 C 25.003906 36.269094 25.944406 36.996094 26.816406 36.996094 C 27.683406 36.996094 28.007812 36.269094 28.007812 35.371094 L 28.007812 31.996094 L 30.007812 31.996094 C 30.683812 31.996094 31.007812 31.276844 31.007812 30.589844 L 31.007812 18.996094 L 17.001953 18.996094 z M 33.435547 18.996094 C 32.572547 18.996094 32.001953 19.7545 32.001953 20.6875 L 32.001953 27.304688 C 32.001953 28.238688 32.571547 28.998047 33.435547 28.998047 C 34.302547 28.998047 34.998047 28.237687 34.998047 27.304688 L 34.998047 20.6875 C 34.998047 19.7535 34.299547 18.996094 33.435547 18.996094 z M 24 20 C 26.227608 20 28.094228 21.465624 28.740234 23.478516 L 28.761719 23.478516 C 28.78956 23.565671 28.802934 23.65889 28.826172 23.748047 C 28.84063 23.803862 28.864388 23.855557 28.876953 23.912109 L 28.865234 23.912109 C 28.871735 23.940975 28.874695 23.971013 28.880859 24 L 25.699219 24 C 25.670683 23.952903 25.655093 23.898144 25.623047 23.853516 C 25.57936 23.791759 25.528672 23.736065 25.478516 23.679688 C 25.422328 23.617422 25.368059 23.553081 25.304688 23.498047 C 24.954725 23.191819 24.502048 23 24 23 C 23.446499 23 22.953954 23.230735 22.595703 23.595703 L 20.46875 21.46875 C 20.507333 21.431127 20.542734 21.390355 20.582031 21.353516 C 21.476031 20.515912 22.678128 20 24 20 z M 20.03125 22.03125 L 22.1875 24.1875 C 22.141888 24.290233 22.104484 24.396938 22.076172 24.507812 C 22.034161 24.666478 22 24.828039 22 25 C 22 25.942088 22.654214 26.727563 23.53125 26.939453 L 22.1875 29.625 C 20.329147 28.897012 19 27.116086 19 25 C 19 23.875267 19.400815 22.862929 20.03125 22.03125 z M 24 24 C 24.55243 24 25 24.447606 25 25 C 25 25.552392 24.55243 26 24 26 C 23.447572 26 23 25.552392 23 25 C 23 24.447606 23.447572 24 24 24 z M 26 25 L 29 25 C 29 27.761287 26.761461 30 24 30 C 23.674211 30 23.360474 29.954465 23.052734 29.892578 L 24.542969 26.914062 C 24.548897 26.912322 24.554656 26.909986 24.560547 26.908203 C 25.390668 26.666509 26 25.908809 26 25 z "
     id="path25" />
  <g
     id="g27">
    <path
       d="m 40.03 7.531 c 3.712 4.084 5.969 9.514 5.969 15.469 0 12.703 -10.297 23 -23 23 c -5.954 0 -11.384 -2.256 -15.469 -5.969 4.178 4.291 10.01 6.969 16.469 6.969 c 12.703 0 23 -10.298 23 -23 0 -6.462 -2.677 -12.291 -6.969 -16.469 z"
       style="opacity:0.1"
       id="path29" />
  </g>
</svg>

<svg xmlns="http://www.w3.org/2000/svg" viewBox="0 0 48 48">
 <defs>
  <linearGradient id="linearGradient4279" x1="1" x2="47" gradientUnits="userSpaceOnUse">
   <stop style="stop-color:#e8a803;stop-opacity:1"/>
   <stop offset="1" style="stop-color:#fcb704;stop-opacity:1"/>
  </linearGradient>
 </defs>
 <g>
  <path d="m 36.31 5 c 5.859 4.062 9.688 10.831 9.688 18.5 c 0 12.426 -10.07 22.5 -22.5 22.5 c -7.669 0 -14.438 -3.828 -18.5 -9.688 c 1.037 1.822 2.306 3.499 3.781 4.969 c 4.085 3.712 9.514 5.969 15.469 5.969 c 12.703 0 23 -10.298 23 -23 c 0 -5.954 -2.256 -11.384 -5.969 -15.469 c -1.469 -1.475 -3.147 -2.744 -4.969 -3.781 z m 4.969 3.781 c 3.854 4.113 6.219 9.637 6.219 15.719 c 0 12.703 -10.297 23 -23 23 c -6.081 0 -11.606 -2.364 -15.719 -6.219 c 4.16 4.144 9.883 6.719 16.219 6.719 c 12.703 0 23 -10.298 23 -23 c 0 -6.335 -2.575 -12.06 -6.719 -16.219 z" style="opacity:0.05"/>
  <path d="m 41.28 8.781 c 3.712 4.085 5.969 9.514 5.969 15.469 c 0 12.703 -10.297 23 -23 23 c -5.954 0 -11.384 -2.256 -15.469 -5.969 c 4.113 3.854 9.637 6.219 15.719 6.219 c 12.703 0 23 -10.298 23 -23 c 0 -6.081 -2.364 -11.606 -6.219 -15.719 z" style="opacity:0.1"/>
  <path d="m 31.25 2.375 c 8.615 3.154 14.75 11.417 14.75 21.13 c 0 12.426 -10.07 22.5 -22.5 22.5 c -9.708 0 -17.971 -6.135 -21.12 -14.75 a 23 23 0 0 0 44.875 -7 a 23 23 0 0 0 -16 -21.875 z" style="opacity:0.2"/>
 </g>
 <g transform="matrix(0,-1,1,0,0,48)" style="fill:url(#linearGradient4279);fill-opacity:1">
  <path d="M 24,1 C 36.703,1 47,11.297 47,24 47,36.703 36.703,47 24,47 11.297,47 1,36.703 1,24 1,11.297 11.297,1 24,1 Z"/>
 </g>
 <path d="m 20.602 12 c -0.058 -0.014 -0.117 -0.004 -0.168 0.031 -0.102 0.066 -0.121 0.211 -0.043 0.32 l 1.293 1.844 c -2.055 0.938 -3.5 2.723 -3.684 4.801 l 14 0 c -0.184 -2.078 -1.625 -3.867 -3.68 -4.801 l 0.004 0 1.293 -1.844 c 0.078 -0.109 0.055 -0.25 -0.043 -0.32 -0.102 -0.07 -0.246 -0.035 -0.324 0.074 l -1.34 1.914 c -0.887 -0.344 -1.871 -0.535 -2.906 -0.535 -1.035 0 -2.02 0.191 -2.906 0.535 l -1.344 -1.914 c -0.039 -0.055 -0.095 -0.092 -0.152 -0.105 z m 1.449 3.576 c 0.43 0 0.771 0.342 0.771 0.76 0 0.418 -0.346 0.762 -0.771 0.762 -0.43 0 -0.777 -0.34 -0.777 -0.762 0 -0.418 0.348 -0.76 0.777 -0.76 z m 6 0 c 0.426 0 0.771 0.342 0.771 0.76 0 0.418 -0.346 0.762 -0.771 0.762 -0.43 0 -0.777 -0.34 -0.777 -0.762 0 -0.418 0.348 -0.76 0.777 -0.76 z m -12.484 4.42 c -0.863 0 -1.566 0.758 -1.566 1.691 l 0 6.617 c 0 0.934 0.703 1.693 1.566 1.693 0.863 0 1.434 -0.76 1.434 -1.693 l 0 -6.617 c 0 -0.934 -0.57 -1.691 -1.434 -1.691 m 2.439 0 0 11.594 c 0 0.688 0.32 1.406 1 1.406 l 2 0 0 3.375 c 0 0.898 0.316 1.625 1.188 1.625 0.867 0 1.814 -0.727 1.814 -1.625 l 0 -3.375 2 0 0 3.375 c 0 0.898 0.941 1.625 1.813 1.625 0.867 0 1.191 -0.727 1.191 -1.625 l 0 -3.375 2 0 c 0.676 0 1 -0.719 1 -1.406 l 0 -11.594 -14.01 0 z m 16.434 0 c -0.863 0 -1.434 0.758 -1.434 1.691 l 0 6.617 c 0 0.934 0.57 1.693 1.434 1.693 0.867 0 1.563 -0.76 1.563 -1.693 l 0 -6.617 c 0 -0.934 -0.699 -1.691 -1.563 -1.691 z m -9.436 1 c 2.228 0 4.094 1.466 4.74 3.479 l 0.021 0 c 0.028 0.087 0.041 0.18 0.064 0.27 0.014 0.056 0.038 0.108 0.051 0.164 l -0.012 0 c 0.006 0.029 0.009 0.059 0.016 0.088 l -3.182 0 c -0.029 -0.047 -0.044 -0.102 -0.076 -0.146 -0.044 -0.062 -0.094 -0.117 -0.145 -0.174 -0.056 -0.062 -0.11 -0.127 -0.174 -0.182 -0.35 -0.306 -0.803 -0.498 -1.305 -0.498 -0.554 0 -1.046 0.231 -1.404 0.596 l -2.127 -2.127 c 0.039 -0.038 0.074 -0.078 0.113 -0.115 0.894 -0.838 2.096 -1.354 3.418 -1.354 z m -3.969 2.031 2.156 2.156 c -0.046 0.103 -0.083 0.209 -0.111 0.32 -0.042 0.159 -0.076 0.32 -0.076 0.492 0 0.942 0.654 1.728 1.531 1.939 l -1.344 2.686 c -1.858 -0.728 -3.188 -2.509 -3.188 -4.625 0 -1.125 0.401 -2.137 1.031 -2.969 z m 3.969 1.969 c 0.552 0 1 0.448 1 1 0 0.552 -0.448 1 -1 1 -0.552 0 -1 -0.448 -1 -1 0 -0.552 0.448 -1 1 -1 z m 2 1 3 0 c 0 2.761 -2.239 5 -5 5 -0.326 0 -0.64 -0.046 -0.947 -0.107 l 1.49 -2.979 c 0.006 -0.002 0.012 -0.004 0.018 -0.006 0.83 -0.242 1.439 -0.999 1.439 -1.908 z" style="fill:#000;opacity:0.1;fill-opacity:1;stroke:none;fill-rule:nonzero"/>
 <path d="m 19.598 11 c -0.058 -0.014 -0.117 -0.004 -0.168 0.031 c -0.102 0.066 -0.121 0.211 -0.043 0.32 l 1.293 1.844 c -2.055 0.938 -3.5 2.723 -3.684 4.801 l 14 0 c -0.184 -2.078 -1.625 -3.867 -3.68 -4.801 l 0.004 0 l 1.293 -1.844 c 0.078 -0.109 0.055 -0.25 -0.043 -0.32 c -0.102 -0.07 -0.246 -0.035 -0.324 0.074 l -1.34 1.914 c -0.887 -0.344 -1.871 -0.535 -2.906 -0.535 c -1.035 0 -2.02 0.191 -2.906 0.535 l -1.344 -1.914 c -0.039 -0.055 -0.095 -0.092 -0.152 -0.105 z m 1.449 3.576 c 0.43 0 0.771 0.342 0.771 0.76 c 0 0.418 -0.346 0.762 -0.771 0.762 c -0.43 0 -0.777 -0.34 -0.777 -0.762 c 0 -0.418 0.348 -0.76 0.777 -0.76 z m 6 0 c 0.426 0 0.771 0.342 0.771 0.76 c 0 0.418 -0.346 0.762 -0.771 0.762 c -0.43 0 -0.777 -0.34 -0.777 -0.762 c 0 -0.418 0.348 -0.76 0.777 -0.76 z m -12.484 4.42 c -0.863 0 -1.566 0.758 -1.566 1.691 l 0 6.617 c 0 0.934 0.703 1.693 1.566 1.693 c 0.863 0 1.434 -0.76 1.434 -1.693 l 0 -6.617 c 0 -0.934 -0.57 -1.691 -1.434 -1.691 z m 2.439 0 l 0 11.594 c 0 0.688 0.32 1.406 1 1.406 l 2 0 l 0 3.375 c 0 0.898 0.316 1.625 1.188 1.625 c 0.867 0 1.814 -0.727 1.814 -1.625 l 0 -3.375 l 2 0 l 0 3.375 c 0 0.898 0.941 1.625 1.813 1.625 c 0.867 0 1.191 -0.727 1.191 -1.625 l 0 -3.375 l 2 0 c 0.676 0 1 -0.719 1 -1.406 l 0 -11.594 l -14.01 0 z m 16.434 0 c -0.863 0 -1.434 0.758 -1.434 1.691 l 0 6.617 c 0 0.934 0.57 1.693 1.434 1.693 c 0.867 0 1.563 -0.76 1.563 -1.693 l 0 -6.617 c 0 -0.934 -0.699 -1.691 -1.563 -1.691 z m -9.436 1 c 2.228 0 4.094 1.466 4.74 3.479 l 0.021 0 c 0.028 0.087 0.041 0.18 0.064 0.27 c 0.014 0.056 0.038 0.108 0.051 0.164 l -0.012 0 c 0.007 0.029 0.009 0.059 0.016 0.088 l -3.182 0 c -0.029 -0.047 -0.044 -0.102 -0.076 -0.146 c -0.044 -0.062 -0.094 -0.117 -0.145 -0.174 c -0.056 -0.062 -0.11 -0.127 -0.174 -0.182 c -0.35 -0.306 -0.803 -0.498 -1.305 -0.498 c -0.554 0 -1.046 0.231 -1.404 0.596 l -2.127 -2.127 c 0.039 -0.038 0.074 -0.078 0.113 -0.115 c 0.894 -0.838 2.096 -1.354 3.418 -1.354 z m -3.969 2.031 l 2.156 2.156 c -0.046 0.103 -0.083 0.209 -0.111 0.32 c -0.042 0.159 -0.076 0.32 -0.076 0.492 c 0 0.942 0.654 1.728 1.531 1.939 l -1.344 2.686 c -1.858 -0.728 -3.188 -2.509 -3.188 -4.625 c 0 -1.125 0.401 -2.137 1.031 -2.969 z m 3.969 1.969 c 0.552 0 1 0.448 1 1 c 0 0.552 -0.448 1 -1 1 c -0.552 0 -1 -0.448 -1 -1 c 0 -0.552 0.448 -1 1 -1 z m 2 1 l 3 0 c 0 2.761 -2.239 5 -5 5 c -0.326 0 -0.64 -0.046 -0.947 -0.107 l 1.49 -2.979 c 0.006 -0.002 0.012 -0.004 0.018 -0.006 c 0.83 -0.242 1.439 -0.999 1.439 -1.908 z" style="fill:#f9f9f9;fill-opacity:1;stroke:none;fill-rule:nonzero"/>
 <g>
  <path d="m 40.03 7.531 c 3.712 4.084 5.969 9.514 5.969 15.469 0 12.703 -10.297 23 -23 23 c -5.954 0 -11.384 -2.256 -15.469 -5.969 4.178 4.291 10.01 6.969 16.469 6.969 c 12.703 0 23 -10.298 23 -23 0 -6.462 -2.677 -12.291 -6.969 -16.469 z" style="opacity:0.1"/>
 </g>
</svg>
